src/img/info.svg

<svg width="30" height="30" viewBox="0 0 30 30" fill="none" xmlns="http://www.w3.org/2000/svg">
<g clip-path="url(#clip0)">
<path d="M16.2481 7.5C16.2481 8.19141 15.6856 8.74805 15 8.74805C14.3145 8.74805 13.752 8.18555 13.752 7.5C13.752 6.81445 14.3145 6.25195 15 6.25195C15.6856 6.25195 16.2481 6.80859 16.2481 7.5Z" fill="#E0E0E0"/>
<path d="M15.0001 23.748C14.4844 23.748 14.0626 23.3262 14.0626 22.8105V13.125H12.8145C12.2989 13.125 11.877 12.7031 11.877 12.1875C11.877 11.6719 12.2989 11.25 12.8145 11.25H15.0001C15.5157 11.25 15.9376 11.6719 15.9376 12.1875V22.8105C15.9376 23.332 15.5157 23.748 15.0001 23.748Z" fill="#E0E0E0"/>
<path d="M15 30C6.72656 30 0 23.2734 0 15C0 6.72656 6.72656 0 15 0C23.2734 0 30 6.72656 30 15C30 23.2734 23.2734 30 15 30ZM15 1.875C7.76367 1.875 1.875 7.76367 1.875 15C1.875 22.2363 7.76367 28.125 15 28.125C22.2363 28.125 28.125 22.2363 28.125 15C28.125 7.76367 22.2363 1.875 15 1.875Z" fill="#E0E0E0"/>
<path d="M17.8125 23.748H12.1875C11.6719 23.748 11.25 23.3262 11.25 22.8105C11.25 22.2949 11.6719 21.873 12.1875 21.873H17.8125C18.3281 21.873 18.75 22.2949 18.75 22.8105C18.75 23.3262 18.3281 23.748 17.8125 23.748Z" fill="#E0E0E0"/>
</g>
<defs>
<clipPath id="clip0">
<rect width="30" height="30" fill="white"/>
</clipPath>
</defs>
</svg>

<?xml version="1.0" encoding="utf-8"?>
<!-- Generator: Adobe Illustrator 22.1.0, SVG Export Plug-In . SVG Version: 6.00 Build 0)  -->
<svg version="1.1" id="Layer_1" xmlns="http://www.w3.org/2000/svg" xmlns:xlink="http://www.w3.org/1999/xlink" x="0px" y="0px"
	 viewBox="0 0 30 30" style="enable-background:new 0 0 30 30;" xml:space="preserve">
<style type="text/css">
	.st0{clip-path:url(#SVGID_2_);}
	.st1{fill:#909090;}
</style>
<g>
	<defs>
		<rect id="SVGID_1_" y="0" width="30" height="30"/>
	</defs>
	<clipPath id="SVGID_2_">
		<use xlink:href="#SVGID_1_"  style="overflow:visible;"/>
	</clipPath>
	<g class="st0">
		<path class="st1" d="M16.2,7.5c0,0.7-0.6,1.2-1.2,1.2c-0.7,0-1.2-0.6-1.2-1.2c0-0.7,0.6-1.2,1.2-1.2C15.7,6.3,16.2,6.8,16.2,7.5z"
			/>
		<path class="st1" d="M15,23.7c-0.5,0-0.9-0.4-0.9-0.9v-9.7h-1.2c-0.5,0-0.9-0.4-0.9-0.9s0.4-0.9,0.9-0.9H15c0.5,0,0.9,0.4,0.9,0.9
			v10.6C15.9,23.3,15.5,23.7,15,23.7z"/>
		<path class="st1" d="M15,30C6.7,30,0,23.3,0,15C0,6.7,6.7,0,15,0c8.3,0,15,6.7,15,15C30,23.3,23.3,30,15,30z M15,1.9
			C7.8,1.9,1.9,7.8,1.9,15c0,7.2,5.9,13.1,13.1,13.1c7.2,0,13.1-5.9,13.1-13.1C28.1,7.8,22.2,1.9,15,1.9z"/>
		<path class="st1" d="M17.8,23.7h-5.6c-0.5,0-0.9-0.4-0.9-0.9c0-0.5,0.4-0.9,0.9-0.9h5.6c0.5,0,0.9,0.4,0.9,0.9
			C18.8,23.3,18.3,23.7,17.8,23.7z"/>
	</g>
</g>
</svg>
